assets/1. Faces/Flexed biceps/Default/Color/flexed_biceps_color_default.svg

<svg width="100%" height="100%" viewBox="0 0 32 32" fill="none" xmlns="http://www.w3.org/2000/svg">
<g filter="url(#filter0_i_20020_4291)">
<path d="M7.96785 7.84375H6.32722L2.57753 19.0312C0.843154 24.9375 3.97658 29 8.79677 29H21.6241C26.2078 28.9416 29.9057 25.207 29.9057 20.6094C29.9057 15.9754 26.1491 12.2188 21.515 12.2188C17.8744 12.2188 14.7754 14.5374 13.614 17.7785C13.5801 17.8731 13.4911 17.9375 13.3906 17.9375V17.9375C13.3036 17.9375 13.2238 17.8892 13.1835 17.8121L7.96785 7.84375Z" fill="#FFB336"/>
</g>
<path d="M7.96785 7.84375H6.32722L2.57753 19.0312C0.843154 24.9375 3.97658 29 8.79677 29H21.6241C26.2078 28.9416 29.9057 25.207 29.9057 20.6094C29.9057 15.9754 26.1491 12.2188 21.515 12.2188C17.8744 12.2188 14.7754 14.5374 13.614 17.7785C13.5801 17.8731 13.4911 17.9375 13.3906 17.9375V17.9375C13.3036 17.9375 13.2238 17.8892 13.1835 17.8121L7.96785 7.84375Z" fill="url(#paint0_linear_20020_4291)"/>
<path d="M7.96785 7.84375H6.32722L2.57753 19.0312C0.843154 24.9375 3.97658 29 8.79677 29H21.6241C26.2078 28.9416 29.9057 25.207 29.9057 20.6094C29.9057 15.9754 26.1491 12.2188 21.515 12.2188C17.8744 12.2188 14.7754 14.5374 13.614 17.7785C13.5801 17.8731 13.4911 17.9375 13.3906 17.9375V17.9375C13.3036 17.9375 13.2238 17.8892 13.1835 17.8121L7.96785 7.84375Z" fill="url(#paint1_radial_20020_4291)"/>
<path d="M7.96785 7.84375H6.32722L2.57753 19.0312C0.843154 24.9375 3.97658 29 8.79677 29H21.6241C26.2078 28.9416 29.9057 25.207 29.9057 20.6094C29.9057 15.9754 26.1491 12.2188 21.515 12.2188C17.8744 12.2188 14.7754 14.5374 13.614 17.7785C13.5801 17.8731 13.4911 17.9375 13.3906 17.9375V17.9375C13.3036 17.9375 13.2238 17.8892 13.1835 17.8121L7.96785 7.84375Z" fill="url(#paint2_radial_20020_4291)"/>
<path d="M7.96785 7.84375H6.32722L2.57753 19.0312C0.843154 24.9375 3.97658 29 8.79677 29H21.6241C26.2078 28.9416 29.9057 25.207 29.9057 20.6094C29.9057 15.9754 26.1491 12.2188 21.515 12.2188C17.8744 12.2188 14.7754 14.5374 13.614 17.7785C13.5801 17.8731 13.4911 17.9375 13.3906 17.9375V17.9375C13.3036 17.9375 13.2238 17.8892 13.1835 17.8121L7.96785 7.84375Z" fill="url(#paint3_radial_20020_4291)"/>
<circle cx="21.515" cy="20.6094" r="8.39062" fill="url(#paint4_radial_20020_4291)"/>
<path d="M7.3197 5.03903L6.29626 7.93356L6.79483 8.89589C7.14061 9.58245 7.84374 10.0156 8.61246 10.0156H13.5531C14.5694 10.0156 15.4845 9.40039 15.8682 8.4593L15.9553 8.24562C16.6681 6.49708 15.8654 4.49835 14.1412 3.72852L12.3666 2.97653C10.1947 2.17184 8.08442 3.02383 7.3197 5.03903Z" fill="url(#paint5_linear_20020_4291)"/>
<path d="M7.3197 5.03903L6.29626 7.93356L6.79483 8.89589C7.14061 9.58245 7.84374 10.0156 8.61246 10.0156H13.5531C14.5694 10.0156 15.4845 9.40039 15.8682 8.4593L15.9553 8.24562C16.6681 6.49708 15.8654 4.49835 14.1412 3.72852L12.3666 2.97653C10.1947 2.17184 8.08442 3.02383 7.3197 5.03903Z" fill="url(#paint6_radial_20020_4291)"/>
<path d="M7.3197 5.03903L6.29626 7.93356L6.79483 8.89589C7.14061 9.58245 7.84374 10.0156 8.61246 10.0156H13.5531C14.5694 10.0156 15.4845 9.40039 15.8682 8.4593L15.9553 8.24562C16.6681 6.49708 15.8654 4.49835 14.1412 3.72852L12.3666 2.97653C10.1947 2.17184 8.08442 3.02383 7.3197 5.03903Z" fill="url(#paint7_radial_20020_4291)"/>
<g filter="url(#filter1_f_20020_4291)">
<path d="M13.1713 18.6875L6.54626 27.4062H20.3275L13.7963 18.6875H13.1713Z" fill="url(#paint8_linear_20020_4291)"/>
<path d="M13.1713 18.6875L6.54626 27.4062H20.3275L13.7963 18.6875H13.1713Z" fill="url(#paint9_radial_20020_4291)"/>
<path d="M13.1713 18.6875L6.54626 27.4062H20.3275L13.7963 18.6875H13.1713Z" fill="url(#paint10_radial_20020_4291)"/>
</g>
<g filter="url(#filter2_f_20020_4291)">
<path d="M11.4488 4.26758L13.8324 5.25195C14.234 5.40038 14.7413 5.93164 14.796 6.71289C14.8536 7.5348 14.2721 8.19682 13.9054 8.42383" stroke="url(#paint11_linear_20020_4291)" stroke-width="1.5" stroke-linecap="round"/>
</g>
<rect x="6.28064" y="6.89844" width="8.91406" height="4.07031" rx="2.03516" fill="url(#paint12_linear_20020_4291)"/>
<rect x="6.28064" y="6.89844" width="8.91406" height="4.07031" rx="2.03516" fill="url(#paint13_radial_20020_4291)"/>
<rect x="6.28064" y="6.89844" width="8.91406" height="4.07031" rx="2.03516" fill="url(#paint14_linear_20020_4291)"/>
<path d="M10.6531 5.00879L10.0004 6.9293L13.7507 6.9293L10.6531 5.00879Z" fill="url(#paint15_radial_20020_4291)"/>
<g filter="url(#filter3_f_20020_4291)">
<path d="M9.40564 5.43347L10.7963 6.32444V6.93569H9.40564V5.43347Z" fill="url(#paint16_linear_20020_4291)"/>
</g>
<defs>
<filter id="filter0_i_20020_4291" x="2.0943" y="6.34375" width="28.8113" height="22.6562" filterUnits="userSpaceOnUse" color-interpolation-filters="sRGB">
<feFlood flood-opacity="0" result="BackgroundImageFix"/>
<feBlend mode="normal" in="SourceGraphic" in2="BackgroundImageFix" result="shape"/>
<feColorMatrix in="SourceAlpha" type="matrix" values="0 0 0 0 0 0 0 0 0 0 0 0 0 0 0 0 0 0 127 0" result="hardAlpha"/>
<feOffset dx="1" dy="-1.5"/>
<feGaussianBlur stdDeviation="1.5"/>
<feComposite in2="hardAlpha" operator="arithmetic" k2="-1" k3="1"/>
<feColorMatrix type="matrix" values="0 0 0 0 0.839216 0 0 0 0 0.541176 0 0 0 0 0.294118 0 0 0 1 0"/>
<feBlend mode="normal" in2="shape" result="effect1_innerShadow_20020_4291"/>
</filter>
<filter id="filter1_f_20020_4291" x="5.54626" y="17.6875" width="15.7812" height="10.7188" filterUnits="userSpaceOnUse" color-interpolation-filters="sRGB">
<feFlood flood-opacity="0" result="BackgroundImageFix"/>
<feBlend mode="normal" in="SourceGraphic" in2="BackgroundImageFix" result="shape"/>
<feGaussianBlur stdDeviation="0.5" result="effect1_foregroundBlur_20020_4291"/>
</filter>
<filter id="filter2_f_20020_4291" x="9.69861" y="2.51733" width="6.85138" height="7.65662" filterUnits="userSpaceOnUse" color-interpolation-filters="sRGB">
<feFlood flood-opacity="0" result="BackgroundImageFix"/>
<feBlend mode="normal" in="SourceGraphic" in2="BackgroundImageFix" result="shape"/>
<feGaussianBlur stdDeviation="0.5" result="effect1_foregroundBlur_20020_4291"/>
</filter>
<filter id="filter3_f_20020_4291" x="8.90564" y="4.93347" width="2.39062" height="2.5022" filterUnits="userSpaceOnUse" color-interpolation-filters="sRGB">
<feFlood flood-opacity="0" result="BackgroundImageFix"/>
<feBlend mode="normal" in="SourceGraphic" in2="BackgroundImageFix" result="shape"/>
<feGaussianBlur stdDeviation="0.25" result="effect1_foregroundBlur_20020_4291"/>
</filter>
<linearGradient id="paint0_linear_20020_4291" x1="16" y1="29.9687" x2="16" y2="27.0313" gradientUnits="userSpaceOnUse">
<stop stop-color="#D27A7F"/>
<stop offset="1" stop-color="#D27A7F" stop-opacity="0"/>
</linearGradient>
<radialGradient id="paint1_radial_20020_4291" cx="0" cy="0" r="1" gradientUnits="userSpaceOnUse" gradientTransform="translate(10.4056 15.6562) rotate(81.5242) scale(7.42484 3.80834)">
<stop offset="0.021235" stop-color="#FFEA5E"/>
<stop offset="1" stop-color="#FFEA5E" stop-opacity="0"/>
</radialGradient>
<radialGradient id="paint2_radial_20020_4291" cx="0" cy="0" r="1" gradientUnits="userSpaceOnUse" gradientTransform="translate(13.4681 17.4531) rotate(-90) scale(2.0625 0.859375)">
<stop stop-color="#E49B48"/>
<stop offset="1" stop-color="#E49B48" stop-opacity="0"/>
</radialGradient>
<radialGradient id="paint3_radial_20020_4291" cx="0" cy="0" r="1" gradientUnits="userSpaceOnUse" gradientTransform="translate(9.80434 10.6242) rotate(125.38) scale(1.51022 2.74818)">
<stop offset="0.210581" stop-color="#D4934E"/>
<stop offset="1" stop-color="#D4934E" stop-opacity="0"/>
</radialGradient>
<radialGradient id="paint4_radial_20020_4291" cx="0" cy="0" r="1" gradientUnits="userSpaceOnUse" gradientTransform="translate(26.6556 18.3438) rotate(140.981) scale(9.33157)">
<stop stop-color="#FFED59"/>
<stop offset="1" stop-color="#FFED59" stop-opacity="0"/>
</radialGradient>
<linearGradient id="paint5_linear_20020_4291" x1="8.40564" y1="8.78121" x2="16.8431" y2="6.78121" gradientUnits="userSpaceOnUse">
<stop stop-color="#E9A73E"/>
<stop offset="1" stop-color="#FFCC30"/>
</linearGradient>
<radialGradient id="paint6_radial_20020_4291" cx="0" cy="0" r="1" gradientUnits="userSpaceOnUse" gradientTransform="translate(10.0931 8.87496) rotate(-30.1963) scale(7.083 12.6242)">
<stop offset="0.560064" stop-color="#FFDD47" stop-opacity="0"/>
<stop offset="1" stop-color="#FFDD47"/>
</radialGradient>
<radialGradient id="paint7_radial_20020_4291" cx="0" cy="0" r="1" gradientUnits="userSpaceOnUse" gradientTransform="translate(11.464 7.54682) rotate(-122.735) scale(5.48766 7.79014)">
<stop offset="0.742479" stop-color="#D0A659" stop-opacity="0"/>
<stop offset="0.961492" stop-color="#D0A659"/>
</radialGradient>
<linearGradient id="paint8_linear_20020_4291" x1="13.4213" y1="18.6875" x2="13.4213" y2="26.1489" gradientUnits="userSpaceOnUse">
<stop stop-color="#FFCA40"/>
<stop offset="1" stop-color="#FFCA40" stop-opacity="0"/>
</linearGradient>
<radialGradient id="paint9_radial_20020_4291" cx="0" cy="0" r="1" gradientUnits="userSpaceOnUse" gradientTransform="translate(10.7181 20.1563) rotate(33.9174) scale(2.18415 4.33652)">
<stop stop-color="#FFE060"/>
<stop offset="1" stop-color="#FFE060" stop-opacity="0"/>
</radialGradient>
<radialGradient id="paint10_radial_20020_4291" cx="0" cy="0" r="1" gradientUnits="userSpaceOnUse" gradientTransform="translate(16.6869 21.5312) rotate(143.344) scale(1.67501 9.91772)">
<stop offset="0.374869" stop-color="#F99D45"/>
<stop offset="1" stop-color="#F99D45" stop-opacity="0"/>
</radialGradient>
<linearGradient id="paint11_linear_20020_4291" x1="14.812" y1="6.71666" x2="11.0035" y2="5.04028" gradientUnits="userSpaceOnUse">
<stop stop-color="#FFED67"/>
<stop offset="1" stop-color="#FFED67" stop-opacity="0"/>
</linearGradient>
<linearGradient id="paint12_linear_20020_4291" x1="8.68689" y1="9.40625" x2="14.4369" y2="9.40625" gradientUnits="userSpaceOnUse">
<stop stop-color="#E9A73E"/>
<stop offset="1" stop-color="#FFC524"/>
</linearGradient>
<radialGradient id="paint13_radial_20020_4291" cx="0" cy="0" r="1" gradientUnits="userSpaceOnUse" gradientTransform="translate(13.8431 8.6875) rotate(137.353) scale(1.61445 1.40902)">
<stop stop-color="#FFEB64"/>
<stop offset="1" stop-color="#FFEB64" stop-opacity="0"/>
</radialGradient>
<linearGradient id="paint14_linear_20020_4291" x1="10.7377" y1="11.6236" x2="10.7377" y2="8.62555" gradientUnits="userSpaceOnUse">
<stop stop-color="#F0960F"/>
<stop offset="1" stop-color="#F0960F" stop-opacity="0"/>
</linearGradient>
<radialGradient id="paint15_radial_20020_4291" cx="0" cy="0" r="1" gradientUnits="userSpaceOnUse" gradientTransform="translate(11.4922 7.08081) rotate(-90) scale(1.21213 1.47114)">
<stop stop-color="#A55812"/>
<stop offset="1" stop-color="#F29B05" stop-opacity="0"/>
</radialGradient>
<linearGradient id="paint16_linear_20020_4291" x1="10.39" y1="5.90619" x2="9.85631" y2="7.13686" gradientUnits="userSpaceOnUse">
<stop stop-color="#FFD863"/>
<stop offset="1" stop-color="#FFD863" stop-opacity="0"/>
</linearGradient>
</defs>
</svg>

<svg width="100%" height="100%" viewBox="0 0 32 32" xmlns="http://www.w3.org/2000/svg"><g filter="url(#a)"><path fill="#FFB336" d="M7.968 7.844h-1.64L2.577 19.03C.843 24.938 3.977 29 8.797 29h12.827a8.391 8.391 0 1 0-8.01-11.221.24.24 0 0 1-.223.159.23.23 0 0 1-.207-.126z"/></g><path fill="url(#b)" d="M7.968 7.844h-1.64L2.577 19.03C.843 24.938 3.977 29 8.797 29h12.827a8.391 8.391 0 1 0-8.01-11.221.24.24 0 0 1-.223.159.23.23 0 0 1-.207-.126z"/><path fill="url(#c)" d="M7.968 7.844h-1.64L2.577 19.03C.843 24.938 3.977 29 8.797 29h12.827a8.391 8.391 0 1 0-8.01-11.221.24.24 0 0 1-.223.159.23.23 0 0 1-.207-.126z"/><path fill="url(#d)" d="M7.968 7.844h-1.64L2.577 19.03C.843 24.938 3.977 29 8.797 29h12.827a8.391 8.391 0 1 0-8.01-11.221.24.24 0 0 1-.223.159.23.23 0 0 1-.207-.126z"/><path fill="url(#e)" d="M7.968 7.844h-1.64L2.577 19.03C.843 24.938 3.977 29 8.797 29h12.827a8.391 8.391 0 1 0-8.01-11.221.24.24 0 0 1-.223.159.23.23 0 0 1-.207-.126z"/><circle cx="21.515" cy="20.609" r="8.391" fill="url(#f)"/><path fill="url(#g)" d="M7.32 5.039 6.296 7.934l.499.962a2.04 2.04 0 0 0 1.817 1.12h4.941a2.5 2.5 0 0 0 2.315-1.557l.087-.213a3.5 3.5 0 0 0-1.814-4.517l-1.774-.752c-2.172-.805-4.283.047-5.047 2.062"/><path fill="url(#h)" d="M7.32 5.039 6.296 7.934l.499.962a2.04 2.04 0 0 0 1.817 1.12h4.941a2.5 2.5 0 0 0 2.315-1.557l.087-.213a3.5 3.5 0 0 0-1.814-4.517l-1.774-.752c-2.172-.805-4.283.047-5.047 2.062"/><path fill="url(#i)" d="M7.32 5.039 6.296 7.934l.499.962a2.04 2.04 0 0 0 1.817 1.12h4.941a2.5 2.5 0 0 0 2.315-1.557l.087-.213a3.5 3.5 0 0 0-1.814-4.517l-1.774-.752c-2.172-.805-4.283.047-5.047 2.062"/><g filter="url(#j)"><path fill="url(#k)" d="m13.171 18.688-6.625 8.718h13.782l-6.532-8.718z"/><path fill="url(#l)" d="m13.171 18.688-6.625 8.718h13.782l-6.532-8.718z"/><path fill="url(#m)" d="m13.171 18.688-6.625 8.718h13.782l-6.532-8.718z"/></g><g filter="url(#n)"><path stroke="url(#o)" stroke-linecap="round" stroke-width="1.5" d="m11.449 4.268 2.383.984c.402.148.91.68.964 1.46.058.823-.524 1.485-.89 1.712"/></g><rect width="8.914" height="4.07" x="6.281" y="6.898" fill="url(#p)" rx="2.035"/><rect width="8.914" height="4.07" x="6.281" y="6.898" fill="url(#q)" rx="2.035"/><rect width="8.914" height="4.07" x="6.281" y="6.898" fill="url(#r)" rx="2.035"/><path fill="url(#s)" d="M10.653 5.009 10 6.929h3.75z"/><g filter="url(#t)"><path fill="url(#u)" d="m9.406 5.433 1.39.891v.612h-1.39z"/></g><defs><radialGradient id="c" cx="0" cy="0" r="1" gradientTransform="matrix(1.09436 7.34375 -3.76675 .56132 10.406 15.656)" gradientUnits="userSpaceOnUse"><stop offset=".021" stop-color="#FFEA5E"/><stop offset="1" stop-color="#FFEA5E" stop-opacity="0"/></radialGradient><radialGradient id="d" cx="0" cy="0" r="1" gradientTransform="matrix(0 -2.0625 .85938 0 13.468 17.453)" gradientUnits="userSpaceOnUse"><stop stop-color="#E49B48"/><stop offset="1" stop-color="#E49B48" stop-opacity="0"/></radialGradient><radialGradient id="e" cx="0" cy="0" r="1" gradientTransform="matrix(-.87441 1.23133 -2.24067 -1.59119 9.804 10.624)" gradientUnits="userSpaceOnUse"><stop offset=".211" stop-color="#D4934E"/><stop offset="1" stop-color="#D4934E" stop-opacity="0"/></radialGradient><radialGradient id="f" cx="0" cy="0" r="1" gradientTransform="rotate(140.981 10.078 13.894)scale(9.33157)" gradientUnits="userSpaceOnUse"><stop stop-color="#FFED59"/><stop offset="1" stop-color="#FFED59" stop-opacity="0"/></radialGradient><radialGradient id="h" cx="0" cy="0" r="1" gradientTransform="rotate(-30.196 21.495 -14.268)scale(7.083 12.6242)" gradientUnits="userSpaceOnUse"><stop offset=".56" stop-color="#FFDD47" stop-opacity="0"/><stop offset="1" stop-color="#FFDD47"/></radialGradient><radialGradient id="i" cx="0" cy="0" r="1" gradientTransform="rotate(-122.735 7.792 .644)scale(5.48766 7.79014)" gradientUnits="userSpaceOnUse"><stop offset=".742" stop-color="#D0A659" stop-opacity="0"/><stop offset=".961" stop-color="#D0A659"/></radialGradient><radialGradient id="l" cx="0" cy="0" r="1" gradientTransform="rotate(33.917 -27.69 27.652)scale(2.18415 4.33652)" gradientUnits="userSpaceOnUse"><stop stop-color="#FFE060"/><stop offset="1" stop-color="#FFE060" stop-opacity="0"/></radialGradient><radialGradient id="m" cx="0" cy="0" r="1" gradientTransform="rotate(143.344 4.777 13.53)scale(1.67501 9.91772)" gradientUnits="userSpaceOnUse"><stop offset=".375" stop-color="#F99D45"/><stop offset="1" stop-color="#F99D45" stop-opacity="0"/></radialGradient><radialGradient id="q" cx="0" cy="0" r="1" gradientTransform="rotate(137.353 5.226 7.046)scale(1.61445 1.40902)" gradientUnits="userSpaceOnUse"><stop stop-color="#FFEB64"/><stop offset="1" stop-color="#FFEB64" stop-opacity="0"/></radialGradient><radialGradient id="s" cx="0" cy="0" r="1" gradientTransform="matrix(0 -1.21213 1.47114 0 11.492 7.08)" gradientUnits="userSpaceOnUse"><stop stop-color="#A55812"/><stop offset="1" stop-color="#F29B05" stop-opacity="0"/></radialGradient><linearGradient id="b" x1="16" x2="16" y1="29.969" y2="27.031" gradientUnits="userSpaceOnUse"><stop stop-color="#D27A7F"/><stop offset="1" stop-color="#D27A7F" stop-opacity="0"/></linearGradient><linearGradient id="g" x1="8.406" x2="16.843" y1="8.781" y2="6.781" gradientUnits="userSpaceOnUse"><stop stop-color="#E9A73E"/><stop offset="1" stop-color="#FFCC30"/></linearGradient><linearGradient id="k" x1="13.421" x2="13.421" y1="18.688" y2="26.149" gradientUnits="userSpaceOnUse"><stop stop-color="#FFCA40"/><stop offset="1" stop-color="#FFCA40" stop-opacity="0"/></linearGradient><linearGradient id="o" x1="14.812" x2="11.004" y1="6.717" y2="5.04" gradientUnits="userSpaceOnUse"><stop stop-color="#FFED67"/><stop offset="1" stop-color="#FFED67" stop-opacity="0"/></linearGradient><linearGradient id="p" x1="8.687" x2="14.437" y1="9.406" y2="9.406" gradientUnits="userSpaceOnUse"><stop stop-color="#E9A73E"/><stop offset="1" stop-color="#FFC524"/></linearGradient><linearGradient id="r" x1="10.738" x2="10.738" y1="11.624" y2="8.626" gradientUnits="userSpaceOnUse"><stop stop-color="#F0960F"/><stop offset="1" stop-color="#F0960F" stop-opacity="0"/></linearGradient><linearGradient id="u" x1="10.39" x2="9.856" y1="5.906" y2="7.137" gradientUnits="userSpaceOnUse"><stop stop-color="#FFD863"/><stop offset="1" stop-color="#FFD863" stop-opacity="0"/></linearGradient><filter id="a" width="28.811" height="22.656" x="2.094" y="6.344" color-interpolation-filters="sRGB" filterUnits="userSpaceOnUse"><feFlood flood-opacity="0" result="BackgroundImageFix"/><feBlend in="SourceGraphic" in2="BackgroundImageFix" result="shape"/><feColorMatrix in="SourceAlpha" result="hardAlpha" values="0 0 0 0 0 0 0 0 0 0 0 0 0 0 0 0 0 0 127 0"/><feOffset dx="1" dy="-1.5"/><feGaussianBlur stdDeviation="1.5"/><feComposite in2="hardAlpha" k2="-1" k3="1" operator="arithmetic"/><feColorMatrix values="0 0 0 0 0.839216 0 0 0 0 0.541176 0 0 0 0 0.294118 0 0 0 1 0"/><feBlend in2="shape" result="effect1_innerShadow_20020_4291"/></filter><filter id="j" width="15.781" height="10.719" x="5.546" y="17.688" color-interpolation-filters="sRGB" filterUnits="userSpaceOnUse"><feFlood flood-opacity="0" result="BackgroundImageFix"/><feBlend in="SourceGraphic" in2="BackgroundImageFix" result="shape"/><feGaussianBlur result="effect1_foregroundBlur_20020_4291" stdDeviation=".5"/></filter><filter id="n" width="6.851" height="7.657" x="9.699" y="2.517" color-interpolation-filters="sRGB" filterUnits="userSpaceOnUse"><feFlood flood-opacity="0" result="BackgroundImageFix"/><feBlend in="SourceGraphic" in2="BackgroundImageFix" result="shape"/><feGaussianBlur result="effect1_foregroundBlur_20020_4291" stdDeviation=".5"/></filter><filter id="t" width="2.391" height="2.502" x="8.906" y="4.933" color-interpolation-filters="sRGB" filterUnits="userSpaceOnUse"><feFlood flood-opacity="0" result="BackgroundImageFix"/><feBlend in="SourceGraphic" in2="BackgroundImageFix" result="shape"/><feGaussianBlur result="effect1_foregroundBlur_20020_4291" stdDeviation=".25"/></filter></defs></svg>
